X:1
T:Title
%%score 1 2 3 4
L:1/8
M:3/2
K:C
V:1 treble nm="Part_1"
V:2 treble nm="Part_2"
V:3 treble-8 nm="Part_3"
V:4 treble-8 nm="Part_4"
V:1
 G8 E4 | ^F4 G2 A4 B2 | c6 B2 B2 A2 | c4 z4 A4 | _B2 c2 d6 c2 | _B4 A6 G2 | G6 A2 ^F2 E2 | G12 :| %8
 G4 E2 G4 F2 | F6 E2 E2 D2 | F4 z4 G4 | F2 G2 A6 _B2 | G4 A2 _B4 A2 | A6 G2 G2 F2 | A4 F4 z4 :| %15
 G4 G2 A4 G2 | F4 _E6 D2 | D4 C6 _B,2 | D12 || A8 G4 | ^F4 G2 A4 G2 | _B4 G2 A4 B2 | %22
 G4 G2 A2 F2 E2 | G8 F4 | E4 D4 z4 | E4 F2 G4 F2 | F4 E6 D2 | F4 C4 z4 | E4 F2 G4 E2 | %29
 C4 F2 A4 G2 | F4 E6 D2 | D4 C6 _B,2 | D4 z4 D4 | E2 F2 G6 E2 | ^F2 G2 A6 G2 | F4 _E6 D2 | %36
 D4 z4 =E4 | F4 A6 G2 | _B6 A2 B2 G2 | F4 G2 _B2 A2 G2 | G4 G2 ^F2 F2 E2 | G12 |] %42
V:2
 d8 e4 | d4 z4 D4 | G4 F6 E2 | G4 E4 z4 | F4 G2 D4 E2 | F4 E4 z2 F2 | D2 D2 z2 d2 ^c4 | d12 :| %8
 d8 d4 | ^c4 c2 d4 _B2 | A4 F4 D4 | z4 ^F4 G4 | E4 F2 G4 F2 | E4 D8 | E4 A4 z4 :| _B4 z4 d4 | %16
 c4 c2 _B4 A2 | A6 G4 F2 | A12 || D4 E2 F2 E2 D2 | A4 z2 F2 _E4 | D4 _E6 D2 | D4 C4 D2 B,2 | %23
 D4 G4 z2 A2 | c4 d2 _B4 A2 | G4 F2 E4 D2 | A4 _B6 A2 | A4 z4 F4 | G4 C2 E4 G2 | A4 F2 E2 D2 C2 | %30
 C4 z2 A2 _B2 c2 | A2 F2 A2 G4 F2 | A4 F4 z4 | G4 D4 z4 | A4 F2 E4 D2 | D4 z4 G2 A2 | %36
 G2 F2 A2 c4 _B2 | A4 F4 z4 | D2 G4 F2 E4 | A2 _B2 G2 F2 E4 | D4 d2 c4 B2 | d12 |] %42
V:3
[K:F] G8 c4 | d8 f4 | e4 d8 | c8 c4 | d4 G8 | d4 c4 d4 | B2 G4 B2 A4 | G12 :| G8 B4 | A4 G8 | %10
 F8 B4 | A8 G4 | c8 d4 | c4 B8 | A12 :| G4 c4 B4 | A4 G8 | F4 _E8 | D12 ||[K:C] D8 z4 | d8 _B4 | %21
 G8 c4 | _B4 A8 | G8 d4 | c2 A2 _B8 | c8 _B4 | A4 G8 | F12 | E12 | F8 F4 | A4 G8 | F4 _E8 | D12 | %33
 G12 | A12 | d4 c8 | _B4 A4 G4 | F12 | G8 c4 | d8 c4 | B4 A8 | G12 |] %42
V:4
 d8 A4 | D12 | c4 G8 | C8 A4 | G4 z4 d4 | G4 A4 D4 | d4 z2 G2 D4 | d12 :| d4 _B4 G4 | z4 C8 | %10
 c8 G4 | D8 d4 | z4 A4 G4 | A2 F2 G8 | D4 F8 :| _B4 z4 G4 | D4 _E8 | z4 G4 G4 | A12 || %19
 d4 A2 F2 G4 | D8 _E4 | _B2 c2 d4 z4 | G4 D8 | d4 _B4 B4 | z4 G8 | E4 A4 _B4 | D4 E8 | D4 A8 | %28
 G12 | z4 D8- | D4 z4 E4 | A4 G8 | F4 A4 G4 | C4 E8 | z4 D8- | D4 z4 G2 F2 | G4 D4 _B4 | d4 A4 z4 | %38
 E12 | D8 E2 F2 | G4 D8 | d12 |] %42

